X: 3
T: Missa L'homme arm\'e quarti toni / Credo
N: Derived from Com1002c-Missa_Lhomme_arme-Credo.krn
C: Loyset Comp\`ere
%%abc-version 2.0
%%abcx-abcm2ps-target-version 5.9.1 (29 Sep 2008)
%%abc-creator hum2abc beta
%%abcx-conversion-date 2019/02/16 20:28:09
%%abc-edited-by Jesse Rodin
%%abc-edited-by Jesse Rodin; Victoria Chang 2012/02/04
%%abcx-initial-encoding-date 2012/02/04/
%%humdrum-veritas 4279394054
%%humdrum-veritas-data 967857217
%%linebreak <none>
%%barnumbers 0
L: 1/4
M: 2/1
Q: 1/2=120
%%staves [1 2 3 4]
V: 1 clef=treble
V: 2 clef=treble-8
V: 3 clef=treble-8
V: 4 clef=bass
K: C
[V:1] z8 | 
[V:2] z8 | 
[V:3] z8 | 
[V:4] E,8 | 
[V:1] z8 | 
[V:2] z8 | 
[V:3] z8 | 
[V:4] F,8 | 
[V:1] z8 | 
[V:2] B8 | 
[V:3] z8 | 
[V:4] E,8 | 
[V:1] z8 | 
[V:2] c8 | 
[V:3] E8- | 
[V:4] C,4C,4 | 
[V:1] B8 | 
[V:2] B8 | 
[V:3] E8- | 
[V:4] G,4G,4 | 
[V:1] c8 | 
[V:2] G4A4 | 
[V:3] E8 | 
[V:4] C,8 | 
[V:1] B8 | 
[V:2] B8- | 
[V:3] E8- | 
[V:4] z8 | 
[V:1] G4A4 | 
[V:2] B4A4- | 
[V:3] E8- | 
[V:4] z4A,,4 | 
[V:1] B8 | 
[V:2] A2^G^F^G4 | 
[V:3] E8 | 
[V:4] E,8 | 
[V:1] A4A4- | 
[V:2] A3Bc2A2 | 
[V:3] E8- | 
[V:4] A,,8 | 
[V:1] A2^G^FG4 | 
[V:2] B8 | 
[V:3] E8- | 
[V:4] z8 | 
[V:1] A8- | 
[V:2] A8 | 
[V:3] E8 | 
[V:4] A,,8- | 
[V:1] A8 | 
[V:2] z4c2d2 | 
[V:3] A8- | 
[V:4] A,,8 | 
[V:1] z8 | 
[V:2] e4e4 | 
[V:3] A8- | 
[V:4] A,,8 | 
[V:1] F2G2A4 | 
[V:2] d4z2c2- | 
[V:3] A8 | 
[V:4] D,4A,,4 | 
[V:1] A4G2B2- | 
[V:2] cdefe2d2- | 
[V:3] z8 | 
[V:4] A,4E,2G,2- | 
[V:1] BAA4^G2 | 
[V:2] dcA2B4 | 
[V:3] z8 | 
[V:4] G,A,F,2E,4 | 
[V:1] A4E2F2 | 
[V:2] A4z4 | 
[V:3] A8 | 
[V:4] A,,8 | 
[V:1] G6G2 | 
[V:2] z4B2c2 | 
[V:3] G8- | 
[V:4] E,8 | 
[V:1] G4z4 | 
[V:2] d2d2e4 | 
[V:3] G8- | 
[V:4] z4C,4 | 
[V:1] G6G2 | 
[V:2] d2c2B4 | 
[V:3] G8 | 
[V:4] B,,2C,2G,,4 | 
[V:1] A4D2F2- | 
[V:2] A4z4 | 
[V:3] F8- | 
[V:4] D,8- | 
[V:1] FEDCD4 | 
[V:2] z8 | 
[V:3] F8 | 
[V:4] D,8 | 
[V:1] E8 | 
[V:2] B4c4 | 
[V:3] E8- | 
[V:4] G,4C,4 | 
[V:1] B4c4 | 
[V:2] B4G2A2 | 
[V:3] E8- | 
[V:4] G,4C,4 | 
[V:1] B4G2A2 | 
[V:2] B6A2- | 
[V:3] E8- | 
[V:4] z4z2A,,2 | 
[V:1] B4A2A2- | 
[V:2] A2G2A3c | 
[V:3] E8 | 
[V:4] E,4A,,4 | 
[V:1] A2^G2A4 | 
[V:2] B4A4 | 
[V:3] z8 | 
[V:4] E,4F,4 | 
[V:1] F2G4FE | 
[V:2] z4E2F2 | 
[V:3] z8 | 
[V:4] D,2E,4D,C, | 
[V:1] D4C4 | 
[V:2] G4A4 | 
[V:3] z8 | 
[V:4] B,,4A,,4 | 
[V:1] E2F2G4 | 
[V:2] G2F2E4 | 
[V:3] z8 | 
[V:4] z8 | 
[V:1] A4G2F2 | 
[V:2] F4E2F2 | 
[V:3] z8 | 
[V:4] z4C,2D,2 | 
[V:1] E4F4 | 
[V:2] G4A4 | 
[V:3] z8 | 
[V:4] E,4D,4 | 
[V:1] E2F2G4 | 
[V:2] A4B4 | 
[V:3] z8 | 
[V:4] z4G,4 | 
[V:1] A4z4 | 
[V:2] A2A2A2G2 | 
[V:3] z8 | 
[V:4] D,2F,4E,2 | 
[V:1] z8 | 
[V:2] F2G2A3_B | 
[V:3] z8 | 
[V:4] D,2C,B,,A,,2D,2 | 
[V:1] z4A4 | 
[V:2] A2G4^F2 | 
[V:3] z8 | 
[V:4] C,2B,,2A,,4 | 
[V:1] _B4A2A2 | 
[V:2] G4z2c2- | 
[V:3] z8 | 
[V:4] G,,2G,2A,2F,2- | 
[V:1] A2G2F2G2 | 
[V:2] c2B2A2G2 | 
[V:3] z8 | 
[V:4] F,2G,2D,2E,2 | 
[V:1] A4AGFE | 
[V:2] c4d3c | 
[V:3] z8 | 
[V:4] F,4z2D,2- | 
[V:1] D2G4^F2 | 
[V:2] B2c2A4 | 
[V:3] z8 | 
[V:4] D,2C,2D,4 | 
[V:1] G8- | 
[V:2] G4z4 | 
[V:3] B8- | 
[V:4] G,,8- | 
[V:1] G8 | 
[V:2] B3cd4 | 
[V:3] B8- | 
[V:4] G,,8 | 
[V:1] z8 | 
[V:2] B4d4 | 
[V:3] B8- | 
[V:4] G,8 | 
[V:1] E3FG4 | 
[V:2] e8- | 
[V:3] B8 | 
[V:4] E,8 | 
[V:1] E4G4 | 
[V:2] e8 | 
[V:3] E8- | 
[V:4] C,8 | 
[V:1] A4z4 | 
[V:2] z4B4 | 
[V:3] E8- | 
[V:4] A,,4E,4 | 
[V:1] A4B4 | 
[V:2] c4B4 | 
[V:3] E8- | 
[V:4] A,,4E,4 | 
[V:1] A4A4 | 
[V:2] z2c4A2 | 
[V:3] E8 | 
[V:4] A,,4z2D,2- | 
[V:1] F2G2B2A2- | 
[V:2] d4B2c2- | 
[V:3] z8 | 
[V:4] D,2G,4F,2- | 
[V:1] AGG4^F2 | 
[V:2] cBAGA4 | 
[V:3] z8 | 
[V:4] F,2G,2D,4 | 
[V:1] G4z4 | 
[V:2] G8 | 
[V:3] B8 | 
[V:4] E,8- | 
[V:1] E3FG2G2 | 
[V:2] z8 | 
[V:3] B8 | 
[V:4] E,8 | 
[V:1] G4G4 | 
[V:2] B3cd2d2 | 
[V:3] B8 | 
[V:4] G,8 | 
[V:1] F4z4 | 
[V:2] d4d4 | 
[V:3] A8- | 
[V:4] D,8 | 
[V:1] A4A2F2 | 
[V:2] c4z4 | 
[V:3] A8- | 
[V:4] F,8 | 
[V:1] E4F4 | 
[V:2] e4d2c2 | 
[V:3] A8 | 
[V:4] C,4D,2A,,2 | 
[V:1] z8 | 
[V:2] B4c4 | 
[V:3] G8- | 
[V:4] E,3D,C,2B,,A,, | 
[V:1] z8 | 
[V:2] B2c2d4 | 
[V:3] G8- | 
[V:4] G,,2C,4B,,2 | 
[V:1] E3FG4 | 
[V:2] e4e4 | 
[V:3] G8 | 
[V:4] C,8 | 
[V:1] A8 | 
[V:2] f3e/d/c2d2 | 
[V:3] F8- | 
[V:4] z8 | 
[V:1] z4A4 | 
[V:2] A2f3edc | 
[V:3] F8- | 
[V:4] D,3E,F,4 | 
[V:1] _B4A4 | 
[V:2] d4c4- | 
[V:3] F8 | 
[V:4] _B,,4F,3G, | 
[V:1] F3GA2A2- | 
[V:2] c4c4 | 
[V:3] F8- | 
[V:4] A,2A,3G,F,E, | 
[V:1] AGFEF4 | 
[V:2] d4d4 | 
[V:3] F8 | 
[V:4] D,4D,4 | 
[V:1] G8 | 
[V:2] e6dc | 
[V:3] E8 | 
[V:4] C,8 | 
[V:1] z4E3F | 
[V:2] B2e2c2BA | 
[V:3] E8- | 
[V:4] z8 | 
[V:1] G4A4 | 
[V:2] B4A4 | 
[V:3] E8- | 
[V:4] z4A,,4 | 
[V:1] G4E4 | 
[V:2] z2e4dc | 
[V:3] E8 | 
[V:4] C,8 | 
[V:1] z4F2F2 | 
[V:2] B2c2d4 | 
[V:3] z8 | 
[V:4] E,4D,4 | 
[V:1] E2F2G4 | 
[V:2] G2c4B2 | 
[V:3] z8 | 
[V:4] G,2A,2G,4 | 
[V:1] E4G4- | 
[V:2] c8 | 
[V:3] e8 | 
[V:4] C,8 | 
[V:1] G4A4 | 
[V:2] B4c4 | 
[V:3] e8- | 
[V:4] E,4A,4 | 
[V:1] z4B4 | 
[V:2] B4B4 | 
[V:3] e8- | 
[V:4] G,2E,3F,G,2 | 
[V:1] c4B4 | 
[V:2] G2A2B4 | 
[V:3] e8 | 
[V:4] C,2A,,2E,4 | 
[V:1] B4G2A2 | 
[V:2] E2B4A2- | 
[V:3] e8- | 
[V:4] z2E,4A,,2 | 
[V:1] B4c2B2- | 
[V:2] A2G2A2G2 | 
[V:3] e8- | 
[V:4] E,4A,,2E,2 | 
[V:1] BAA4^G2 | 
[V:2] A4B4 | 
[V:3] e8 | 
[V:4] C,2A,,2E,4 | 
[V:1] A4E3F | 
[V:2] A8 | 
[V:3] e8- | 
[V:4] A,,8 | 
[V:1] G4A4 | 
[V:2] z4E3F | 
[V:3] e8- | 
[V:4] E,4A,,4 | 
[V:1] G3FE4 | 
[V:2] G4A4 | 
[V:3] e8- | 
[V:4] E,4A,,4 | 
[V:1] E8 | 
[V:2] G3FE4 | 
[V:3] e8 | 
[V:4] C,8 | 
[V:1] F4E2F2 | 
[V:2] A2A2A2A2 | 
[V:3] z8 | 
[V:4] D,4A,,4 | 
[V:1] G4E2F2 | 
[V:2] G4A2A2 | 
[V:3] z8 | 
[V:4] E,3D,C,2B,,A,, | 
[V:1] G4G2G2 | 
[V:2] _B8 | 
[V:3] d8- | 
[V:4] G,,4G,4- | 
[V:1] G4F2A2- | 
[V:2] _B4A2F2- | 
[V:3] d8- | 
[V:4] G,4D,4 | 
[V:1] AGG4^F2 | 
[V:2] F2G2A4 | 
[V:3] d8 | 
[V:4] z4D,4 | 
[V:1] G8- | 
[V:2] G4z4 | 
[V:3] d8 | 
[V:4] G,8 | 
[V:1] G8- | 
[V:2] B4c4 | 
[V:3] e8 | 
[V:4] E,4C,4 | 
[V:1] G8 | 
[V:2] d2d2d2d2 | 
[V:3] B8- | 
[V:4] G,8 | 
[V:1] z4G,3A, | 
[V:2] d4e4 | 
[V:3] B8 | 
[V:4] G,4E,3F, | 
[V:1] B,2C2D2E2 | 
[V:2] d2c2B4 | 
[V:3] z8 | 
[V:4] G,2A,2G,2F,E, | 
[V:1] F4G4 | 
[V:2] d4e4 | 
[V:3] z4e4- | 
[V:4] D,4C,4- | 
[V:1] z4E4 | 
[V:2] z2c4B2 | 
[V:3] e4e4 | 
[V:4] C,8 | 
[V:1] F4G2G2 | 
[V:2] A4G4 | 
[V:3] d8 | 
[V:4] D,4G,,4 | 
[V:1] G2G2G4 | 
[V:2] B8 | 
[V:3] d4e4- | 
[V:4] G,4E,4 | 
[V:1] A4G3F | 
[V:2] c4B4 | 
[V:3] e4e4 | 
[V:4] A,,4E,4- | 
[V:1] E8 | 
[V:2] G3AB2e2- | 
[V:3] B8 | 
[V:4] E,4E,4 | 
[V:1] G8 | 
[V:2] e2dcB4 | 
[V:3] z8 | 
[V:4] E,4E,4 | 
[V:1] A8 | 
[V:2] A4z2A2 | 
[V:3] z8 | 
[V:4] F,8 | 
[V:1] z4A4 | 
[V:2] _B4A4 | 
[V:3] z8 | 
[V:4] G,4D,4 | 
[V:1] _B4A4 | 
[V:2] G4z2c2- | 
[V:3] z4z4 | 
[V:4] z2G,4F,2 | 
[V:1] G4F2A2- | 
[V:2] c2B2A2d2 | 
[V:3] z8 | 
[V:4] G,4D,4 | 
[V:1] AGG4^F2 | 
[V:2] B2AGA4 | 
[V:3] z8 | 
[V:4] E,4D,4 | 
[V:1] G8 | 
[V:2] G2c4B2 | 
[V:3] e8 | 
[V:4] E,2C,2G,4 | 
[V:1] A8 | 
[V:2] c8 | 
[V:3] f8- | 
[V:4] F,8 | 
[V:1] _B8 | 
[V:2] d8 | 
[V:3] f8- | 
[V:4] _B,,8 | 
[V:1] A8 | 
[V:2] c4A4- | 
[V:3] f8 | 
[V:4] F,8- | 
[V:1] F4A4- | 
[V:2] A2B2c4- | 
[V:3] f8 | 
[V:4] F,8 | 
[V:1] A4G4- | 
[V:2] c2B2c4 | 
[V:3] e8 | 
[V:4] C,8 | 
[V:1] G4^F4 | 
[V:2] A8 | 
[V:3] d8- | 
[V:4] D,8 | 
[V:1] G8- | 
[V:2] G4z2D2 | 
[V:3] d8 | 
[V:4] G,,8 | 
[V:1] G8 | 
[V:2] E3DC2G2- | 
[V:3] c8- | 
[V:4] C,6B,,2 | 
[V:1] A8 | 
[V:2] G2^FE^F4 | 
[V:3] c8 | 
[V:4] A,,3G,,A,,4 | 
[V:1] !fermata!D8 ||  
[V:2] !fermata!G8 ||  
[V:3] !fermata!B8 ||  
[V:4] !fermata!G,,8 ||  
[V:1]  [K:C] [K:clef=treble][M:2/1]E8- | 
[V:2]  [K:C] [K:clef=treble-8][M:2/1]G4A4 | 
[V:3]  [K:C] [K:clef=treble-8][M:2/1]z8 | 
[V:4]  [K:C] [K:clef=bass][M:2/1]C,8 | 
[V:1] E8 | 
[V:2] G4c4- | 
[V:3] G4A4 | 
[V:4] C,4A,,4 | 
[V:1] E8 | 
[V:2] c4c4- | 
[V:3] G4E4- | 
[V:4] C,8 | 
[V:1] A8 | 
[V:2] c2c2A2d2 | 
[V:3] E4F2F2 | 
[V:4] A,,4D,4 | 
[V:1] A4G4 | 
[V:2] e2d4^c2 | 
[V:3] E2F2G4 | 
[V:4] C,2D,2E,4 | 
[V:1] F8- | 
[V:2] d8 | 
[V:3] A4z2A2- | 
[V:4] D,8- | 
[V:1] F8 | 
[V:2] z2A4B2 | 
[V:3] AGFEF4 | 
[V:4] D,8 | 
[V:1] E8 | 
[V:2] c4C3D | 
[V:3] G4z4 | 
[V:4] C,4A,,4- | 
[V:1] z8 | 
[V:2] E2F2G4 | 
[V:3] A4_B4 | 
[V:4] A,,4G,,4 | 
[V:1] z8 | 
[V:2] E2F2D4 | 
[V:3] A4F2G2 | 
[V:4] A,,4_B,,4 | 
[V:1] z8 | 
[V:2] E2F2G2E2- | 
[V:3] A4_B2A2- | 
[V:4] A,,4G,,2C,2 | 
[V:1] z8 | 
[V:2] E2D4C2 | 
[V:3] AGG4^F2 | 
[V:4] B,,2G,,2A,,4 | 
[V:1] z8 | 
[V:2] D4z2E2- | 
[V:3] G8 | 
[V:4] G,,3A,,B,,2C,2 | 
[V:1] z8 | 
[V:2] E2F2E2F2 | 
[V:3] A8 | 
[V:4] A,,3B,,C,2D,2 | 
[V:1] z8 | 
[V:2] D3ED2G2 | 
[V:3] B8 | 
[V:4] G,,8 | 
[V:1] E8 | 
[V:2] C4c4- | 
[V:3] A8- | 
[V:4] A,,8- | 
[V:1] E4A4- | 
[V:2] c2B2c4 | 
[V:3] A8 | 
[V:4] A,,8 | 
[V:1] A4G4 | 
[V:2] A2d4^c2 | 
[V:3] F4G4 | 
[V:4] D,4E,4 | 
[V:1] F4F4 | 
[V:2] d8 | 
[V:3] A8- | 
[V:4] D,8 | 
[V:1] E8 | 
[V:2] c4c4- | 
[V:3] A4G4- | 
[V:4] A,,3B,,C,2E,2 | 
[V:1] z8 | 
[V:2] c2BAB4 | 
[V:3] G2FEF4 | 
[V:4] D,4D,4 | 
[V:1] E4E4 | 
[V:2] c8 | 
[V:3] G8- | 
[V:4] C,8 | 
[V:1] D4G4- | 
[V:2] z4d4 | 
[V:3] G8- | 
[V:4] G,,8- | 
[V:1] G4G4 | 
[V:2] d2e2d4 | 
[V:3] G8 | 
[V:4] G,,8 | 
[V:1] G6G2 | 
[V:2] B8 | 
[V:3] z4E4- | 
[V:4] G,8 | 
[V:1] G4G4 | 
[V:2] c4B2c2 | 
[V:3] E4E4 | 
[V:4] C,4E,4 | 
[V:1] F4z4 | 
[V:2] d4e4 | 
[V:3] A8- | 
[V:4] D,4A,,4- | 
[V:1] A4_B4 | 
[V:2] z4e4 | 
[V:3] A4G4 | 
[V:4] A,,4z4 | 
[V:1] A4F4 | 
[V:2] f4d4 | 
[V:3] F8 | 
[V:4] D,8 | 
[V:1] A4G2A2- | 
[V:2] c4z2c2 | 
[V:3] E8 | 
[V:4] A,,3B,,C,2A,,2 | 
[V:1] AGG4^F2 | 
[V:2] B2AGA4 | 
[V:3] z4z4 | 
[V:4] D,2E,2D,4 | 
[V:1] G8- | 
[V:2] G4E3F | 
[V:3] B8 | 
[V:4] E,3F,G,4 | 
[V:1] G8 | 
[V:2] G4E3F | 
[V:3] B8 | 
[V:4] E,3F,G,4 | 
[V:1] z8 | 
[V:2] G4A4- | 
[V:3] E8 | 
[V:4] C,4A,,3B,, | 
[V:1] E2F2G4 | 
[V:2] A4z4 | 
[V:3] z8 | 
[V:4] C,2D,2E,2C,2- | 
[V:1] E2F2G4 | 
[V:2] A4_B4 | 
[V:3] z8 | 
[V:4] C,B,,A,,2G,,4 | 
[V:1] A4z4 | 
[V:2] A2A2F2G2 | 
[V:3] z8 | 
[V:4] z2D,4B,,2 | 
[V:1] z8 | 
[V:2] A4_B2A2- | 
[V:3] z8 | 
[V:4] C,2D,3B,,C,2 | 
[V:1] z8 | 
[V:2] AGG4^F2 | 
[V:3] z8 | 
[V:4] D,2G,,2A,,4 | 
[V:1] z4D4 | 
[V:2] G8 | 
[V:3] B4B4 | 
[V:4] G,,8- | 
[V:1] G4G2G2- | 
[V:2] B4c4 | 
[V:3] E8 | 
[V:4] G,,4z4 | 
[V:1] G2G2G2G2 | 
[V:2] d2d2d2d2 | 
[V:3] B4B4 | 
[V:4] z8 | 
[V:1] G8 | 
[V:2] d2d2d4 | 
[V:3] B8 | 
[V:4] z8 | 
[V:1] A4F4 | 
[V:2] e4d3c | 
[V:3] A8 | 
[V:4] A,,4D,4 | 
[V:1] G4A4 | 
[V:2] B4c4 | 
[V:3] G4E2F2 | 
[V:4] E,4A,,4 | 
[V:1] z4F4 | 
[V:2] B2c2d4 | 
[V:3] G2E2F4 | 
[V:4] E,4D,4 | 
[V:1] G4G4 | 
[V:2] e4e4 | 
[V:3] E8 | 
[V:4] C,8 | 
[V:1] A8 | 
[V:2] f2edc4 | 
[V:3] z8 | 
[V:4] F,4z2F,2 | 
[V:1] A4_B4 | 
[V:2] z2c2d2e2 | 
[V:3] z8 | 
[V:4] A,4G,4 | 
[V:1] A4F2A2- | 
[V:2] f3ed2c2- | 
[V:3] z8 | 
[V:4] F,2D,3E,F,2- | 
[V:1] AGG4^F2 | 
[V:2] cBAGA4 | 
[V:3] z8 | 
[V:4] F,G,E,2D,4 | 
[V:1] G8 | 
[V:2] G4c4- | 
[V:3] e8 | 
[V:4] E,4C,4- | 
[V:1] E3FG4 | 
[V:2] c4c4 | 
[V:3] e8 | 
[V:4] C,4C,4 | 
[V:1] G4G4 | 
[V:2] B8 | 
[V:3] d8- | 
[V:4] G,8 | 
[V:1] F4A4 | 
[V:2] A8 | 
[V:3] d8 | 
[V:4] D,8 | 
[V:1] G4F4 | 
[V:2] B4A4 | 
[V:3] d8 | 
[V:4] G,,4D,4 | 
[V:1] G8 | 
[V:2] c4c4 | 
[V:3] e8- | 
[V:4] C,8 | 
[V:1] E3FG2G2 | 
[V:2] G4B2c2 | 
[V:3] e8 | 
[V:4] C,3D,E,2C,2 | 
[V:1] G4G4 | 
[V:2] d2d2d4 | 
[V:3] B8 | 
[V:4] G,8 | 
[V:1] A4G3F | 
[V:2] d4e4 | 
[V:3] z8 | 
[V:4] F,4E,2C,2- | 
[V:1] E4D4 | 
[V:2] e2c2B4 | 
[V:3] z8 | 
[V:4] C,D,E,F,G,2D,2 | 
[V:1] A4B4 | 
[V:2] A4z2G2 | 
[V:3] z4e4- | 
[V:4] F,4E,4 | 
[V:1] A4G4 | 
[V:2] A4E4 | 
[V:3] e4e4 | 
[V:4] A,,3B,,C,4 | 
[V:1] F2A3GG2- | 
[V:2] A2F2G2_B2 | 
[V:3] d8 | 
[V:4] D,4B,,2G,,2 | 
[V:1] G2^F2G4- | 
[V:2] A4G4 | 
[V:3] d8 | 
[V:4] D,4G,,4 | 
[V:1] G4z4 | 
[V:2] z2G2c4 | 
[V:3] e8 | 
[V:4] C,6D,2 | 
[V:1] E3FG4 | 
[V:2] B4e4- | 
[V:3] e4B4- | 
[V:4] E,8 | 
[V:1] G4G2G2 | 
[V:2] e4e2e2 | 
[V:3] B4B4 | 
[V:4] z8 | 
[V:1] G4F2A2- | 
[V:2] e4d2c2 | 
[V:3] z8 | 
[V:4] z8 | 
[V:1] A2G4^F2 | 
[V:2] B2AGA4 | 
[V:3] z8 | 
[V:4] z8 | 
[V:1] G4z4 | 
[V:2] G4E2F2 | 
[V:3] z8 | 
[V:4] z2G,4F,2 | 
[V:1] z8 | 
[V:2] G4G4 | 
[V:3] z8 | 
[V:4] E,2D,C,B,,4 | 
[V:1] E2F2G4 | 
[V:2] A4G3F | 
[V:3] z8 | 
[V:4] A,,4E,4 | 
[V:1] G4A4 | 
[V:2] E4F2F2 | 
[V:3] z8 | 
[V:4] z4D,2A,,2 | 
[V:1] G2F2E4 | 
[V:2] E2F2G4 | 
[V:3] z8 | 
[V:4] C,2D,2E,4 | 
[V:1] F2F2E2F2 | 
[V:2] A4c4 | 
[V:3] z8 | 
[V:4] D,4A,4 | 
[V:1] G4A4 | 
[V:2] d4e4- | 
[V:3] z8 | 
[V:4] _B,4A,4 | 
[V:1] A4_B4 | 
[V:2] e4f4 | 
[V:3] z8 | 
[V:4] C4D4 | 
[V:1] A4F2G2 | 
[V:2] e4d4 | 
[V:3] z8 | 
[V:4] A,4_B,4 | 
[V:1] A4_B2A2- | 
[V:2] c4d3c | 
[V:3] z8 | 
[V:4] A,4G,2F,2 | 
[V:1] AGG4^F2 | 
[V:2] B2c2A4 | 
[V:3] z8 | 
[V:4] G,2C,2D,4 | 
[V:1] G8- | 
[V:2] G4c4- | 
[V:3] e8- | 
[V:4] E,4C,4 | 
[V:1] G8 | 
[V:2] c4c4 | 
[V:3] e8 | 
[V:4] z4E,3F, | 
[V:1] G4G4 | 
[V:2] B6B2 | 
[V:3] e8 | 
[V:4] G,2G,2G,4 | 
[V:1] A6A2 | 
[V:2] c4c4 | 
[V:3] f8 | 
[V:4] F,8 | 
[V:1] A3Bc2G2 | 
[V:2] c6B2 | 
[V:3] e8 | 
[V:4] A,6G,2- | 
[V:1] A4B4 | 
[V:2] A4G4 | 
[V:3] d8 | 
[V:4] G,2^F,2G,4 | 
[V:1] c2BAG4- | 
[V:2] z4E3F | 
[V:3] c8- | 
[V:4] z2C,4C,2 | 
[V:1] G2FEE4- | 
[V:2] G4G4 | 
[V:3] c8- | 
[V:4] C,4C,4 | 
[V:1] E4z4 | 
[V:2] G4A4 | 
[V:3] c8- | 
[V:4] C,4A,,4 | 
[V:1] E3FG4 | 
[V:2] G3FE4- | 
[V:3] c8 | 
[V:4] C,6C,2 | 
[V:1] G4G2A2 | 
[V:2] E8- | 
[V:3] c8- | 
[V:4] C,4C,4 | 
[V:1] G3FE4 | 
[V:2] E4G4 | 
[V:3] c8 | 
[V:4] C,2C,2C,2C,2 | 
[V:1] D8 | 
[V:2] G2G2G2G2 | 
[V:3] B8- | 
[V:4] G,,8 | 
[V:1] G8 | 
[V:2] E4G4 | 
[V:3] B8- | 
[V:4] z2G,3F,E,2- | 
[V:1] z4B4 | 
[V:2] G6G2 | 
[V:3] B8 | 
[V:4] E,2D,C,B,,4 | 
[V:1] c4B2B2 | 
[V:2] A4z2B2- | 
[V:3] z8 | 
[V:4] A,,4E,4 | 
[V:1] B2A2G2A2 | 
[V:2] B2c3BA2- | 
[V:3] z8 | 
[V:4] z2A,,2C,4 | 
[V:1] B4c2B2- | 
[V:2] A2G2A2B2 | 
[V:3] z8 | 
[V:4] D,2E,2A,,2E,2- | 
[V:1] BAA4^G2 | 
[V:2] c2d2B4 | 
[V:3] z8 | 
[V:4] E,2D,2E,4 | 
[V:1] A4A4 | 
[V:2] A8 | 
[V:3] z4E4 | 
[V:4] A,,8 | 
[V:1] G4E4 | 
[V:2] B4c4 | 
[V:3] E4E4 | 
[V:4] z4A,,4 | 
[V:1] F4z2F2- | 
[V:2] d2d2d2d2 | 
[V:3] A8- | 
[V:4] D,6D,2 | 
[V:1] F2E2F4 | 
[V:2] d2e2d4 | 
[V:3] A8 | 
[V:4] D,2C,2D,4 | 
[V:1] G2D2E2G2- | 
[V:2] B4c2c2 | 
[V:3] G8- | 
[V:4] G,,4C,3D, | 
[V:1] G2FED4 | 
[V:2] B2c2d4 | 
[V:3] G8- | 
[V:4] E,2C,4B,,2 | 
[V:1] C4z2C2- | 
[V:2] e4c2e2- | 
[V:3] G8- | 
[V:4] C,8 | 
[V:1] C2D2E4 | 
[V:2] e2d4^c2 | 
[V:3] G8 | 
[V:4] C,2B,,2E,4 | 
[V:1] F4z4 | 
[V:2] d4d4 | 
[V:3] F8 | 
[V:4] D,8 | 
[V:1] G4A4 | 
[V:2] e4c4 | 
[V:3] E8 | 
[V:4] C,4A,,4 | 
[V:1] G4E4 | 
[V:2] B4c2c2 | 
[V:3] z8 | 
[V:4] E,4C,4 | 
[V:1] F2F2E2F2 | 
[V:2] A2B2c4 | 
[V:3] z8 | 
[V:4] D,4C,2B,,A,, | 
[V:1] G8 | 
[V:2] d4G4 | 
[V:3] B4B4 | 
[V:4] G,,4B,,4 | 
[V:1] A4F4 | 
[V:2] c4A4 | 
[V:3] E4z4 | 
[V:4] A,,4D,4 | 
[V:1] G3FG2A2- | 
[V:2] d8- | 
[V:3] B6A2 | 
[V:4] G,,4G,2D,2 | 
[V:1] AGG4^F2 | 
[V:2] d4d4 | 
[V:3] B4A4 | 
[V:4] G,4D,4 | 
[V:1] G4z4 | 
[V:2] B2c3BAG | 
[V:3] G2FEG2F2- | 
[V:4] E,2C,4D,2- | 
[V:1] z8 | 
[V:2] _B2A4G2 | 
[V:3] FEE4D2 | 
[V:4] D,C,A,,2B,,4 | 
[V:1] [M:3/1]z4z4G4 | 
[V:2] [M:3/1]A8E4 | 
[V:3] [M:3/1]E12 | 
[V:4] [M:3/1]A,,6B,,2C,2D,2 | 
[V:1] G8E4 | 
[V:2] B8B4 | 
[V:3] z12 | 
[V:4] E,6F,2G,2F,G, | 
[V:1] F4E6D2 | 
[V:2] c8B2A2 | 
[V:3] z12 | 
[V:4] A,6E,2G,2F,2 | 
[V:1] D8^C4 | 
[V:2] A8G4 | 
[V:3] z12 | 
[V:4] D,4E,8 | 
[V:1] D12 | 
[V:2] A8B4 | 
[V:3] z12 | 
[V:4] D,6C,2B,,4 | 
[V:1] z12 | 
[V:2] c6BAG4 | 
[V:3] E8E4 | 
[V:4] A,,3B,,C,3D,E,4 | 
[V:1] D6E2F2G2 | 
[V:2] F6G2A2B2 | 
[V:3] A8A4 | 
[V:4] D,12 | 
[V:1] A4_B6A2 | 
[V:2] c8d4 | 
[V:3] A4G8 | 
[V:4] z12 | 
[V:1] A8G4 | 
[V:2] A4B8 | 
[V:3] F4E8 | 
[V:4] z12 | 
[V:1] A12 | 
[V:2] A6B2c4 | 
[V:3] z12 | 
[V:4] A,,8A,,4 | 
[V:1] z12 | 
[V:2] d8G4 | 
[V:3] B8B4 | 
[V:4] G,,8G,,4 | 
[V:1] A8G4 | 
[V:2] c6d2e4 | 
[V:3] E12 | 
[V:4] A,,6B,,2C,4 | 
[V:1] F8G4 | 
[V:2] A8c4- | 
[V:3] z12 | 
[V:4] D,8C,4 | 
[V:1] A6G2F3E | 
[V:2] c4d8 | 
[V:3] z12 | 
[V:4] F,8F,4 | 
[V:1] G6F2E3D | 
[V:2] e6f2g4 | 
[V:3] B4B4B4 | 
[V:4] E,6D,2E,4 | 
[V:1] E4F6E2 | 
[V:2] c4d4B4 | 
[V:3] A8G4 | 
[V:4] A,,4D,4E,4 | 
[V:1] E4D6C2 | 
[V:2] c4A8 | 
[V:3] E4F8 | 
[V:4] C,4D,8 | 
[V:1] E12- | 
[V:2] B12 | 
[V:3] E12- | 
[V:4] G,6F,2E,2D,2 | 
[V:1] E12- | 
[V:2] c12 | 
[V:3] E12- | 
[V:4] C,3B,,A,,2G,,2A,,4 | 
[V:1] E12 |]  
[V:2] B12 |]  
[V:3] E12 |]  
[V:4] E,,12 & E,12 |]  



